;FLAVOR:Marlin
;TIME:452
;Filament used: 0.157791m
;Layer height: 0.13125
;MINX:51.321
;MINY:51.322
;MINZ:0.306
;MAXX:68.676
;MAXY:68.677
;MAXZ:9.173
;Generated with Cura_SteamEngine 4.13.0
M140 S65
M105
M190 S65
M104 S205
M105
M109 S205
M82 ;absolute extrusion mode
G21;(metric values)
G90;(absolute positioning)
M82;(set extruder to absolute mode)
M107;(start with the fan off)
G28;(Home the printer)
G92 E0;(Reset the extruder to 0)
G0 Z5 E5 F500;(Move up and prime the nozzle)
G0 X-1 Z0;(Move outside the printable area)
G1 Y60 E8 F500;(Draw a priming/wiping line to the rear)
G1 X-1;(Move a little closer to the print area)
G1 Y10 E16 F500;(draw more priming/wiping)
G1 E15 F250;(Small retract)
G92 E0;(Zero the extruder)
G92 E0
G92 E0
G1 F2400 E-2.5
;LAYER_COUNT:63
;LAYER:-6
M107
G0 F7200 X53.968 Y54.078 Z0.306
;TYPE:SUPPORT-INTERFACE
G1 F2400 E0
G1 F1125 X54.392 Y53.674 E0.05961
G1 X54.955 Y53.217 E0.13341
G1 X55.44 Y52.883 E0.19334
G1 X56.075 Y52.513 E0.26814
G1 X56.652 Y52.239 E0.33315
G1 X57.31 Y51.987 E0.40486
G1 X57.859 Y51.825 E0.46312
G1 X58.568 Y51.669 E0.537
G1 X59.231 Y51.581 E0.60507
G1 X59.878 Y51.548 E0.67101
G1 X60.436 Y51.56 E0.72781
G1 X60.997 Y51.603 E0.78507
G1 X61.738 Y51.729 E0.86157
G1 X62.277 Y51.857 E0.91796
G1 X62.541 Y51.937 E0.94603
G1 X63.036 Y52.113 E0.9995
G1 X63.525 Y52.311 E1.05319
G1 X63.832 Y52.467 E1.08824
G1 X64.299 Y52.722 E1.1424
G1 X64.851 Y53.078 E1.20925
G1 X65.285 Y53.406 E1.26461
G1 X65.793 Y53.841 E1.33268
G1 X65.925 Y53.971 E1.35154
G1 X66.353 Y54.424 E1.41496
G1 X66.774 Y54.942 E1.4829
G1 X67.089 Y55.398 E1.53931
G1 X67.485 Y56.072 E1.61887
G1 X67.741 Y56.606 E1.67914
G1 X67.986 Y57.228 E1.74718
G1 X68.165 Y57.817 E1.80983
G1 X68.329 Y58.551 E1.88638
G1 X68.411 Y59.152 E1.94811
G1 X68.452 Y59.857 E2.01998
G1 X68.442 Y60.429 E2.07821
G1 X68.397 Y61.006 E2.13711
G1 X68.363 Y61.243 E2.16148
G1 X68.271 Y61.743 E2.21322
G1 X68.145 Y62.272 E2.26857
G1 X68.064 Y62.538 E2.29687
G1 X67.891 Y63.026 E2.34956
G1 X67.658 Y63.583 E2.41101
G1 X67.567 Y63.769 E2.43209
G1 X67.316 Y64.233 E2.48578
G1 X67.03 Y64.702 E2.54168
G1 X66.84 Y64.962 E2.57446
G1 X66.522 Y65.378 E2.62775
G1 X66.07 Y65.884 E2.6968
G1 X65.638 Y66.297 E2.75763
G1 X65.057 Y66.773 E2.83407
G1 X64.613 Y67.08 E2.88901
G1 X63.925 Y67.486 E2.97032
G1 X63.406 Y67.735 E3.0289
G1 X62.69 Y68.013 E3.10708
G1 X62.141 Y68.175 E3.16533
G1 X61.432 Y68.331 E3.23922
G1 X60.771 Y68.419 E3.30709
G1 X60.122 Y68.452 E3.37322
G1 X59.564 Y68.44 E3.43003
G1 X59.003 Y68.397 E3.48729
G1 X58.262 Y68.271 E3.56379
G1 X57.723 Y68.143 E3.62017
G1 X57.459 Y68.063 E3.64825
G1 X56.964 Y67.887 E3.70172
G1 X56.475 Y67.689 E3.75541
G1 X55.729 Y67.294 E3.84132
G1 X55.13 Y66.908 E3.91385
G1 X54.697 Y66.579 E3.96919
G1 X54.202 Y66.154 E4.03559
G1 X54.06 Y66.014 E4.05589
G1 X53.711 Y65.646 E4.10751
G1 X53.365 Y65.244 E4.16149
G1 X52.906 Y64.595 E4.24239
G1 X52.51 Y63.919 E4.32213
G1 X52.26 Y63.396 E4.38113
G1 X51.982 Y62.678 E4.45949
G1 X51.816 Y62.116 E4.51913
G1 X51.67 Y61.435 E4.59001
G1 X51.594 Y60.873 E4.64773
G1 X51.548 Y60.136 E4.72289
G1 X51.559 Y59.553 E4.78223
G1 X51.606 Y58.964 E4.84237
G1 X51.637 Y58.756 E4.86377
G1 X51.729 Y58.257 E4.91541
G1 X51.858 Y57.717 E4.97192
G1 X51.936 Y57.464 E4.99887
G1 X52.108 Y56.978 E5.05133
G1 X52.338 Y56.424 E5.11238
G1 X52.429 Y56.24 E5.13328
G1 X52.697 Y55.744 E5.19066
G1 X52.97 Y55.298 E5.24388
G1 X53.418 Y54.7 E5.31992
G1 X53.505 Y54.592 E5.33404
G1 X53.788 Y54.267 E5.3779
G0 F1012.5 X53.839 Y54.209
G0 X53.968 Y54.078
G0 F7200 X54.4 Y53.667
G1 F1125 X54.4 Y66.324 E6.66608
G0 F7200 X56 Y67.437
G1 F1125 X56 Y52.556 E8.18061
G0 F7200 X57.6 Y51.901
G1 F1125 X57.6 Y68.105 E9.82978
G0 F7200 X59.2 Y68.412
G1 F1125 X59.2 Y51.585 E11.54237
G0 F7200 X60.8 Y51.588
G1 F1125 X60.8 Y68.416 E13.25506
G0 F7200 X62.4 Y68.099
G1 F1125 X62.4 Y51.895 E14.90423
G0 F7200 X64 Y52.559
G1 F1125 X64 Y67.442 E16.41897
G0 F7200 X65.6 Y66.329
G1 F1125 X65.6 Y53.676 E17.70674
G0 F7200 X67.2 Y55.587
M104 S200
G1 F1125 X67.2 Y64.424 E18.60613
G0 F7200 X52.8 Y64.414
G1 F1125 X52.8 Y55.575 E19.50573
G0 F90 X52.8 Y55.575 Z0.525
G0 F7200 X52.446 Y63.901
;TIME_ELAPSED:38.269374
;LAYER:-5
M140 S60
;TYPE:SUPPORT
G1 F1125 X56.091 Y67.547 E19.83432
G1 X55.671 Y67.317 E19.86484
G1 X55.403 Y67.158 E19.8847
G1 X55.102 Y66.948 E19.90809
G1 X54.995 Y66.871 E19.91649
G1 X54.659 Y66.612 E19.94353
G1 X54.535 Y66.512 E19.95368
G1 X54.175 Y66.196 E19.98421
G1 X54.095 Y66.121 E19.9912
G1 X53.674 Y65.678 E20.03015
G1 X53.57 Y65.564 E20.03999
G1 X53.369 Y65.331 E20.0596
G1 X53.18 Y65.079 E20.07968
G1 X52.864 Y64.622 E20.11509
G1 X52.788 Y64.505 E20.12398
G1 X52.642 Y64.274 E20.1414
G1 X52.465 Y63.942 E20.16538
G0 F7200 X56.091 Y67.547
G1 F1125 X56.132 Y67.569 E20.16834
G1 X56.247 Y67.629 E20.17661
G1 X56.454 Y67.734 E20.1914
G1 X56.799 Y67.877 E20.2152
G1 X56.937 Y67.93 E20.22463
G1 X57.434 Y68.105 E20.25821
G1 X57.593 Y68.158 E20.26889
G1 X57.71 Y68.191 E20.27664
G1 X58.086 Y68.283 E20.30131
G1 X58.104 Y68.286 E20.30247
G1 X51.704 Y61.886 E20.87933
G1 X51.697 Y61.858 E20.88117
G1 X51.622 Y61.452 E20.90749
G1 X51.598 Y61.294 E20.91767
G1 X51.527 Y60.748 E20.95276
G1 X51.514 Y60.607 E20.96179
G1 X51.508 Y60.49 E20.96926
G1 X51.505 Y60.415 E20.97404
G1 X59.58 Y68.489 E21.70183
G1 X60.006 Y68.5 E21.72899
G1 X60.123 Y68.5 E21.73645
G1 X60.475 Y68.492 E21.75889
G1 X60.557 Y68.488 E21.76412
G1 X60.768 Y68.469 E21.77762
G1 X60.824 Y68.461 E21.78123
G1 X51.538 Y59.174 E22.61826
G1 X51.56 Y58.921 E22.63445
G1 X51.589 Y58.747 E22.64569
G1 X51.68 Y58.246 E22.67815
G1 X51.706 Y58.121 E22.68628
G1 X51.716 Y58.08 E22.68897
G1 X61.919 Y68.283 E23.60862
G1 X62.15 Y68.224 E23.62381
G1 X62.697 Y68.062 E23.66017
G1 X62.901 Y67.992 E23.67392
G1 X52.01 Y57.101 E24.65557
G1 X52.064 Y56.949 E24.66585
G1 X52.104 Y56.845 E24.67295
G1 X52.287 Y56.415 E24.70274
G1 X52.335 Y56.309 E24.71015
G1 X52.389 Y56.207 E24.71751
G1 X63.787 Y67.605 E25.74486
G1 X63.946 Y67.53 E25.75607
G1 X64.275 Y67.355 E25.77982
G1 X64.51 Y67.206 E25.79755
G1 X64.6 Y67.146 E25.80445
G1 X52.847 Y55.393 E26.8638
G1 X52.864 Y55.366 E26.86583
G1 X52.902 Y55.306 E26.87036
G1 X53.027 Y55.13 E26.88412
G1 X53.116 Y55.011 E26.89359
G1 X53.371 Y54.677 E26.92037
G1 X53.385 Y54.658 E26.92187
G1 X65.344 Y66.617 E27.99979
G1 X65.611 Y66.388 E28.02221
G1 X66.01 Y66.01 E28.05724
G1 X53.989 Y53.989 E29.14075
G1 X54.368 Y53.628 E29.17411
G1 X54.619 Y53.407 E29.19542
G1 X54.653 Y53.38 E29.19819
G1 X66.613 Y65.34 E30.2762
G1 X66.617 Y65.335 E30.27661
G1 X66.883 Y64.988 E30.30447
G1 X66.971 Y64.868 E30.31396
G1 X67.109 Y64.675 E30.32908
G1 X67.151 Y64.606 E30.33423
G1 X55.397 Y52.851 E31.39372
G1 X55.418 Y52.837 E31.39532
G1 X55.695 Y52.66 E31.41627
G1 X55.787 Y52.609 E31.42298
G1 X56.102 Y52.443 E31.44567
G1 X56.211 Y52.393 E31.45332
G1 X67.61 Y63.791 E32.48071
G1 X67.663 Y63.689 E32.48804
G1 X67.707 Y63.593 E32.49477
G1 X67.881 Y63.186 E32.52298
G1 X67.94 Y63.032 E32.53349
G1 X67.989 Y62.897 E32.54265
G1 X57.098 Y52.006 E33.5243
G1 X57.302 Y51.936 E33.53805
G1 X57.849 Y51.775 E33.57439
G1 X58.078 Y51.714 E33.58949
G1 X68.283 Y61.919 E34.50932
G1 X68.29 Y61.885 E34.51153
G1 X68.319 Y61.753 E34.52014
G1 X68.412 Y61.245 E34.55306
G1 X68.439 Y61.078 E34.56384
G1 X68.461 Y60.824 E34.58009
G1 X59.174 Y51.538 E35.41712
G1 X59.232 Y51.53 E35.42085
G1 X59.442 Y51.511 E35.43429
G1 X59.524 Y51.507 E35.43953
G1 X59.876 Y51.498 E35.46197
G1 X59.993 Y51.499 E35.46943
G1 X60.419 Y51.509 E35.49658
G1 X68.493 Y59.583 E36.22433
G1 X68.49 Y59.474 E36.23128
G1 X68.486 Y59.392 E36.23651
G1 X68.467 Y59.213 E36.24798
G1 X68.391 Y58.63 E36.28546
G1 X68.377 Y58.542 E36.29114
G1 X68.302 Y58.146 E36.31682
G1 X68.294 Y58.112 E36.31905
G1 X61.894 Y51.712 E36.89591
G1 X61.912 Y51.715 E36.89707
G1 X62.288 Y51.807 E36.92174
G1 X62.406 Y51.84 E36.92955
G1 X62.564 Y51.893 E36.94018
G1 X63.053 Y52.066 E36.97323
G1 X63.199 Y52.121 E36.98318
G1 X63.544 Y52.265 E37.00701
G1 X63.86 Y52.426 E37.02961
G1 X63.906 Y52.451 E37.03295
G1 X67.552 Y56.096 E37.36153
G1 X67.529 Y56.05
G1 X67.349 Y55.712 E37.38594
G1 X67.312 Y55.653 E37.39038
G1 X67.134 Y55.377 E37.41131
G1 X66.813 Y54.913 E37.44727
G1 X66.627 Y54.665 E37.46703
G1 X66.39 Y54.39 E37.49016
G1 X65.902 Y53.875 E37.53538
G1 X65.825 Y53.805 E37.54201
G1 X65.442 Y53.47 E37.57445
G1 X65.316 Y53.367 E37.58482
G1 X65.008 Y53.132 E37.60951
G1 X64.871 Y53.031 E37.62036
G1 X64.582 Y52.832 E37.64272
G1 X64.322 Y52.678 E37.66198
G1 X63.906 Y52.451 E37.69219
G0 F90 X63.906 Y52.451 Z0.656
G0 F7200 X61.472 Y51.45
;TIME_ELAPSED:53.937803
;LAYER:-4
;TYPE:SUPPORT-INTERFACE
G1 F1500 X58.515 Y51.45 E37.74855
G1 X58.542 Y51.445 E37.74908
G1 X59.118 Y51.367 E37.76016
G1 X59.435 Y51.334 E37.76623
G1 X59.874 Y51.322 E37.7746
G1 X59.999 Y51.323 E37.77699
G1 X60.437 Y51.334 E37.78534
G1 X60.586 Y51.341 E37.78818
G1 X61.014 Y51.377 E37.79637
G1 X61.116 Y51.388 E37.79832
G1 X61.293 Y51.417 E37.80174
G0 F7200 X58.515 Y51.45
G1 F1500 X58.187 Y51.51 E37.8081
G1 X58.049 Y51.541 E37.81079
G1 X57.799 Y51.608 E37.81573
G1 X57.247 Y51.771 E37.8267
G1 X57.162 Y51.8 E37.82841
G1 X62.83 Y51.8 E37.93646
G1 X63.12 Y51.903 E37.94232
G1 X63.267 Y51.959 E37.94532
G1 X63.612 Y52.102 E37.95244
G1 X63.707 Y52.15 E37.95447
G1 X56.314 Y52.15 E38.0954
G1 X55.974 Y52.313 E38.10258
G1 X55.629 Y52.498 E38.11005
G1 X55.626 Y52.5
G1 X64.364 Y52.5 E38.27661
G1 X64.402 Y52.521 E38.27744
G1 X64.687 Y52.69 E38.28376
G1 X64.919 Y52.85 E38.28913
G1 X55.09 Y52.85 E38.47649
G1 X54.904 Y52.976 E38.48077
G1 X54.825 Y53.034 E38.48264
G1 X54.604 Y53.2 E38.48791
G1 X65.387 Y53.2 E38.69346
G1 X65.427 Y53.231 E38.69442
G1 X65.562 Y53.341 E38.69774
G1 X65.802 Y53.55 E38.70381
G1 X54.198 Y53.55 E38.92501
G1 X53.83 Y53.9 E38.93469
G1 X66.169 Y53.9 E39.1699
G1 X66.464 Y54.211 E39.17807
G1 X66.501 Y54.25 E39.17909
G1 X53.506 Y54.25 E39.42681
G1 X53.336 Y54.444 E39.43172
G1 X53.236 Y54.567 E39.43474
G1 X53.211 Y54.6 E39.43553
G1 X66.799 Y54.6 E39.69455
G1 X66.957 Y54.81 E39.69956
G1 X67.015 Y54.891 E39.70146
G1 X67.056 Y54.95 E39.70283
G1 X52.945 Y54.95 E39.97182
G1 X52.888 Y55.027 E39.97364
G1 X52.748 Y55.223 E39.97823
G1 X52.702 Y55.3 E39.97994
G1 X67.294 Y55.3 E40.2581
G1 X67.462 Y55.56 E40.264
G1 X67.515 Y55.65 E40.26599
G1 X52.493 Y55.65 E40.55234
G1 X52.303 Y56 E40.55993
G1 X67.701 Y56 E40.85345
G1 X67.714 Y56.026 E40.85401
G1 X67.868 Y56.35 E40.86085
G1 X52.126 Y56.35 E41.16092
G1 X51.978 Y56.7 E41.16817
G1 X68.028 Y56.7 E41.47412
G1 X68.104 Y56.88 E41.47784
G1 X68.163 Y57.05 E41.48127
G1 X51.845 Y57.05 E41.79233
G1 X51.724 Y57.389 E41.79919
G1 X51.721 Y57.4 E41.79941
G1 X68.276 Y57.4 E42.11498
G1 X68.38 Y57.75 E42.12194
G1 X51.618 Y57.75 E42.44146
G1 X51.537 Y58.081 E42.44796
G1 X51.533 Y58.1 E42.44833
G1 X68.474 Y58.1 E42.77126
G1 X68.474 Y58.102
G1 X68.539 Y58.45 E42.77801
G1 X51.466 Y58.45 E43.10346
G1 X51.416 Y58.72 E43.10869
G1 X51.404 Y58.8 E43.11024
G1 X68.592 Y58.8 E43.43788
G1 X68.633 Y59.119 E43.44401
G1 X68.637 Y59.15 E43.4446
G1 X51.364 Y59.15 E43.77387
G1 X51.34 Y59.413 E43.7789
G1 X51.336 Y59.5 E43.78056
G1 X68.667 Y59.5 E44.11093
G1 X68.676 Y59.85 E44.1176
G1 X51.326 Y59.85 E44.44833
G1 X51.321 Y60.031 E44.45178
G1 X51.322 Y60.142 E44.4539
G1 X51.323 Y60.2 E44.455
G1 X68.672 Y60.2 E44.78571
G1 X68.667 Y60.427 E44.79004
G1 X68.661 Y60.55 E44.79239
G1 X51.334 Y60.55 E45.12268
G1 X51.338 Y60.617 E45.12396
G1 X51.354 Y60.77 E45.12689
G1 X51.37 Y60.9 E45.12939
G1 X68.631 Y60.9 E45.45842
G1 X68.615 Y61.089 E45.46204
G1 X68.588 Y61.25 E45.46515
G1 X51.415 Y61.25 E45.79251
G1 X51.425 Y61.325 E45.79395
G1 X51.447 Y61.475 E45.79684
G1 X51.469 Y61.6 E45.79926
G1 X68.525 Y61.6 E46.12438
G1 X68.491 Y61.79 E46.12806
G1 X68.463 Y61.918 E46.13056
G1 X68.455 Y61.95 E46.13119
G1 X51.538 Y61.95 E46.45366
G1 X51.596 Y62.17 E46.458
G1 X51.634 Y62.3 E46.46058
G1 X68.369 Y62.3 E46.77959
G1 X68.362 Y62.331 E46.78019
G1 X68.329 Y62.451 E46.78257
G1 X68.276 Y62.613 E46.78582
G1 X68.262 Y62.65 E46.78657
G1 X51.738 Y62.65 E47.10155
G1 X51.768 Y62.751 E47.10356
G1 X51.853 Y63 E47.10858
G1 X68.138 Y63 E47.41901
G1 X68.105 Y63.095 E47.42092
G1 X68.043 Y63.253 E47.42416
G1 X68.001 Y63.35 E47.42617
G1 X51.994 Y63.35 E47.7313
G1 X52.051 Y63.483 E47.73406
G1 X52.155 Y63.7 E47.73865
G1 X67.851 Y63.7 E48.03785
G1 X67.82 Y63.769 E48.03929
G1 X67.765 Y63.875 E48.04157
G1 X67.67 Y64.05 E48.04536
G1 X52.324 Y64.05 E48.33789
G1 X52.491 Y64.362 E48.34464
G1 X52.514 Y64.4 E48.34548
G1 X67.478 Y64.4 E48.63073
G1 X67.462 Y64.429 E48.63136
G1 X67.297 Y64.703 E48.63746
G1 X67.267 Y64.75 E48.63852
G1 X52.738 Y64.75 E48.91548
G1 X52.98 Y65.1 E48.92359
G1 X67.015 Y65.1 E49.19113
G1 X66.756 Y65.444 E49.19933
G1 X66.751 Y65.45 E49.19948
G1 X53.239 Y65.45 E49.45705
G1 X53.44 Y65.683 E49.46292
G1 X53.54 Y65.794 E49.46577
G1 X53.545 Y65.8 E49.46591
G1 X66.464 Y65.8 E49.71218
G1 X66.228 Y66.044 E49.71865
G1 X66.155 Y66.116 E49.7206
G1 X66.119 Y66.15 E49.72155
G1 X53.877 Y66.15 E49.95491
G1 X53.969 Y66.246 E49.95744
G1 X54.053 Y66.323 E49.95961
G1 X54.255 Y66.5 E49.96473
G1 X65.749 Y66.5 E50.18384
G1 X65.722 Y66.526 E50.18455
G1 X65.444 Y66.764 E50.19153
G1 X65.405 Y66.795 E50.19248
G1 X65.33 Y66.85 E50.19425
G1 X54.679 Y66.85 E50.39728
G1 X54.896 Y67.016 E50.40249
G1 X55 Y67.093 E50.40496
G1 X55.153 Y67.2 E50.40851
G1 X64.834 Y67.2 E50.59306
G1 X64.736 Y67.268 E50.59533
G1 X64.43 Y67.465 E50.60227
G1 X64.313 Y67.534 E50.60486
G1 X64.282 Y67.55 E50.60552
G1 X55.73 Y67.55 E50.76854
G1 X56.161 Y67.783 E50.77788
G1 X56.385 Y67.896 E50.78266
G1 X56.394 Y67.9 E50.78285
G1 X63.578 Y67.9 E50.91979
G1 X63.437 Y67.967 E50.92277
G1 X63.116 Y68.106 E50.92944
G1 X62.752 Y68.229 E50.93676
G1 X62.68 Y68.25 E50.93819
G1 X57.312 Y68.25 E51.04052
G1 X57.383 Y68.275 E51.04195
G1 X57.53 Y68.324 E51.04491
G1 X57.674 Y68.363 E51.04775
G1 X58.049 Y68.455 E51.05511
G1 X58.213 Y68.491 E51.05831
G1 X58.707 Y68.582 E51.06789
G1 X58.815 Y68.6 E51.06997
G1 X61.123 Y68.6 E51.11397
G1 X60.88 Y68.633 E51.11864
G1 X60.564 Y68.665 E51.1247
G1 X60.125 Y68.677 E51.13307
G1 X60 Y68.676 E51.13545
G1 X59.562 Y68.665 E51.1438
G1 X59.413 Y68.658 E51.14665
G1 X58.985 Y68.622 E51.15483
G1 X58.876 Y68.61 E51.15692
G0 F90 X58.876 Y68.61 Z1.182
G0 F7200 X58.376 Y57.741
;TIME_ELAPSED:83.457662
;LAYER:0
M106 S255
;TYPE:WALL-INNER
;MESH:motor-pin-neg.stl
G1 F1487.8 X57.776 Y58.39 E51.19075
G1 X57.436 Y59.018 E51.21808
G1 X57.269 Y59.713 E51.24543
G1 X57.287 Y60.43 E51.27288
G1 X57.492 Y61.117 E51.30032
G1 X57.866 Y61.728 E51.32774
G1 X58.389 Y62.224 E51.35532
G1 X59.02 Y62.564 E51.38275
G1 X59.715 Y62.731 E51.41011
G1 X60.434 Y62.713 E51.43763
G1 X61.12 Y62.507 E51.46504
G1 X61.729 Y62.133 E51.49239
G1 X62.222 Y61.613 E51.51981
G1 X62.564 Y60.982 E51.54728
G1 X62.731 Y60.287 E51.57464
G1 X62.713 Y59.57 E51.60208
G1 X62.508 Y58.883 E51.62952
G1 X62.141 Y58.283 E51.65644
G1 X61.613 Y57.74 E51.68542
G1 X59.07 Y57.741 E51.78274
G0 F1339 X58.376 Y57.741
G0 F4320 X57.87 Y59.184
G0 X57.747 Y60.358
G0 X58.227 Y61.436
G0 X60.621 Y62.941
G1 F1487.8 X60.16 Y63.003 E51.79897
G1 X59.684 Y62.992 E51.8134
G1 X59.222 Y62.905 E51.82764
G1 X58.763 Y62.743 E51.84446
G1 X58.367 Y62.527 E51.85799
G1 X57.99 Y62.237 E51.87472
G1 X57.659 Y61.888 E51.88934
G1 X57.395 Y61.503 E51.90343
G1 X57.193 Y61.079 E51.91992
G1 X57.056 Y60.618 E51.93499
G1 X56.997 Y60.163 E51.95104
G1 X57.007 Y59.691 E51.9653
G1 X57.094 Y59.224 E51.97976
G1 X57.252 Y58.778 E51.9964
G1 X57.477 Y58.362 E52.01053
G1 X57.759 Y57.994 E52.02645
G1 X58.118 Y57.653 E52.03982
G1 X58.49 Y57.399 E52.05599
G1 X58.929 Y57.19 E52.07459
G1 X59.379 Y57.059 E52.09253
G1 X59.84 Y56.997 E52.11033
G1 X60.316 Y57.008 E52.12855
G1 X60.778 Y57.095 E52.14654
G1 X61.231 Y57.255 E52.16493
G1 X61.636 Y57.476 E52.18259
G1 X62.007 Y57.76 E52.19834
G1 X62.341 Y58.112 E52.21257
G1 X62.605 Y58.497 E52.22682
G1 X62.809 Y58.926 E52.24316
G1 X62.941 Y59.37 E52.25695
G1 X63.003 Y59.837 E52.27351
G1 X62.993 Y60.309 E52.28778
G1 X62.906 Y60.776 E52.30224
G1 X62.747 Y61.224 E52.31861
G1 X62.52 Y61.643 E52.33276
G1 X62.244 Y62.004 E52.34871
G1 X61.891 Y62.338 E52.36347
G1 X61.5 Y62.606 E52.37778
G1 X61.073 Y62.81 E52.39445
